X:760
T:Piper's Cave, The
C:Sutherland
S:Jock Tamson's Bairns
Z:Nigel Gatherer
M:2/4
L:1/8
K:A
A2 A>B | ce fa/f/ | ec c/B/A/B/ | cB B2  |
A2 A>B | ce fa/f/ | ec Bc/B/    | A2 A2 :|
af fe/f/ | ac c>f | ec c/B/A/B/ | cB B2  |
af fe/f/ | ac c>f | ec Bc/B/    | A2 A2  |
af fe/f/ | ac c>f | ec c/B/A/B/ | cB B2  |
A2 A>B | ce fa/f/ | ec Bc/B/    | A2 A2 |]
